assets/Oncoming fist/Default/Flat/oncoming_fist_flat_default.svg

<svg width="32" height="32" viewBox="0 0 32 32" fill="none" xmlns="http://www.w3.org/2000/svg">
<path d="M27 26.8985L19.375 29.5468C16.9531 30.4687 14.5469 29.4062 13.9531 26.7656C13.1646 24.4813 14.1693 21.9231 16.4536 21.1346L24.0787 18.4863C26.363 17.6977 28.9569 18.9474 29.7455 21.2317C30.5246 23.6156 29.2844 26.11 27 26.8985Z" fill="#D67D00"/>
<path d="M25.9219 6.29688C24.9389 6.29688 23.6562 6.50001 22.6406 6.29688C21.9075 6.15024 20.4062 4.98438 18.5781 4.98438C16.3191 4.98438 15.5938 6.70312 12.5156 6.5625C11.0613 6.49606 9.0875 6.9375 7.9375 8.3125C6.99794 9.43589 5.13938 9.64005 4.09375 10.25C2.79375 10.95 2 12.6 2 14.1V20.7812C2 24.0625 2.78125 25.7031 5.59375 26C7.92558 26.2461 8.5 24.6063 9 24.4062C9.15625 25.4062 10.5625 27 12.0625 27C14.2969 27 14.9656 26.3687 15.7656 25.4688C16.4844 27.0781 17.8406 27.9375 19.1406 27.9375C21.8 27.9375 22.25 26.875 23.0469 25.4688C23.8469 26.3687 25.0063 26.9219 26.4062 26.9219C28.3906 26.9219 29.9844 25.0781 29.9844 22.5781L29.8 10.7C29.8 8.20001 28.4219 6.29688 25.9219 6.29688Z" fill="#FFC83D"/>
<path d="M4.21205 25.4708C4.34124 25.5973 4.47354 25.7133 4.60663 25.8181C2.7595 25.3005 2.10768 23.8998 2.01261 21.4643C1.99221 19.4517 1.99921 16.3917 2.01518 13.7367C2.0915 12.8141 2.45286 11.8687 3.03459 11.1479C2.99891 15.0549 2.97148 21.864 3.0544 23.3152C3.0946 24.0188 3.5502 24.8228 4.21205 25.4708Z" fill="#D67D00"/>
<path d="M10.9847 26.1616C11.2424 26.4827 11.5196 26.7623 11.7943 26.9833C10.3986 26.8113 9.1469 25.3464 9 24.4063C8.98961 24.4104 8.97918 24.4152 8.96871 24.4206C8.87686 24.0722 8.82523 23.7205 8.82523 23.375C8.82523 22.8899 8.822 22.2126 8.81824 21.4234C8.80849 19.376 8.79516 16.5763 8.82528 14.4305C8.82915 14.1544 9.05613 13.9337 9.33224 13.9376C9.60836 13.9414 9.82905 14.1684 9.82518 14.4445C9.7952 16.5802 9.80844 19.3589 9.81819 21.4047C9.82197 22.1986 9.82523 22.8823 9.82523 23.375C9.82523 24.2587 10.3019 25.311 10.9847 26.1616Z" fill="#D67D00"/>
<path d="M18.4268 27.8521C18.1978 27.6521 17.9696 27.4134 17.755 27.146C17.0722 26.2953 16.5955 25.243 16.5955 24.3594C16.5955 23.9122 16.5928 23.1231 16.5895 22.1458C16.5797 19.2749 16.5644 14.7808 16.5954 12.5695C16.5993 12.2934 16.3786 12.0664 16.1025 12.0626C15.8264 12.0587 15.5994 12.2794 15.5955 12.5555C15.5644 14.7768 15.5797 19.2935 15.5895 22.1636C15.5928 23.1352 15.5955 23.9181 15.5955 24.3594C15.5955 24.7287 15.6545 25.105 15.7585 25.4768L15.7656 25.4688C16.3531 26.7842 17.3664 27.5985 18.4268 27.8521Z" fill="#D67D00"/>
<path d="M24.678 26.1616C24.8655 26.3952 25.0633 26.6069 25.263 26.79C24.3829 26.5788 23.6384 26.1235 23.071 25.4957C22.7355 24.8173 22.5185 24.0832 22.5185 23.375C22.5185 22.9198 22.5157 22.1702 22.5122 21.2578C22.5024 18.6735 22.4877 14.7841 22.5186 12.5867C22.5224 12.3106 22.7494 12.0899 23.0255 12.0938C23.3017 12.0977 23.5223 12.3247 23.5185 12.6008C23.4878 14.7882 23.5024 18.655 23.5122 21.2393C23.5157 22.1572 23.5185 22.9134 23.5185 23.375C23.5185 24.2587 23.9952 25.311 24.678 26.1616Z" fill="#D67D00"/>
</svg>

<svg xmlns="http://www.w3.org/2000/svg" width="32" height="32" fill="none"><path fill="#D67D00" d="m27 26.898-7.625 2.649c-2.422.922-4.828-.14-5.422-2.781-.788-2.285.216-4.843 2.5-5.631l7.626-2.649c2.284-.788 4.878.461 5.666 2.746.78 2.384-.46 4.878-2.745 5.666Z"/><path fill="#FFC83D" d="M25.922 6.297c-.983 0-2.266.203-3.281 0-.733-.147-2.235-1.313-4.063-1.313-2.259 0-2.984 1.72-6.062 1.579-1.455-.067-3.428.375-4.579 1.75-.94 1.123-2.798 1.327-3.843 1.937C2.794 10.95 2 12.6 2 14.1v6.681c0 3.282.781 4.922 3.594 5.219C7.926 26.246 8.5 24.606 9 24.406c.156 1 1.563 2.594 3.063 2.594 2.234 0 2.903-.631 3.703-1.531.718 1.61 2.075 2.468 3.375 2.468 2.659 0 3.109-1.062 3.906-2.468.8.9 1.96 1.453 3.36 1.453 1.984 0 3.577-1.844 3.577-4.344L29.8 10.7c0-2.5-1.378-4.403-3.878-4.403Z"/><path fill="#D67D00" d="M4.212 25.47c.13.127.262.243.395.348-1.848-.518-2.5-1.918-2.594-4.354a548.4 548.4 0 0 1 .002-7.727 4.844 4.844 0 0 1 1.02-2.59c-.036 3.908-.064 10.717.02 12.168.04.704.495 1.508 1.157 2.156ZM10.985 26.162c.257.32.535.6.81.821-1.396-.172-2.648-1.637-2.795-2.577a.343.343 0 0 0-.031.015 4.114 4.114 0 0 1-.144-1.046c0-.485-.003-1.162-.007-1.952-.01-2.047-.023-4.847.007-6.992a.5.5 0 0 1 1 .014c-.03 2.135-.017 4.914-.007 6.96.004.794.007 1.477.007 1.97 0 .884.477 1.936 1.16 2.787ZM18.427 27.852a5.571 5.571 0 0 1-.672-.706c-.683-.85-1.16-1.903-1.16-2.787 0-.447-.002-1.236-.005-2.213-.01-2.871-.026-7.365.005-9.577a.5.5 0 1 0-1-.014c-.03 2.222-.015 6.739-.006 9.609.004.971.006 1.754.006 2.195 0 .37.06.746.163 1.118l.008-.008c.587 1.315 1.6 2.13 2.66 2.383ZM24.678 26.162c.188.233.385.445.585.628a4.268 4.268 0 0 1-2.192-1.294c-.336-.679-.553-1.413-.553-2.121 0-.455-.002-1.205-.006-2.117-.01-2.584-.024-6.474.007-8.671a.5.5 0 1 1 1 .014c-.031 2.187-.017 6.054-.007 8.638.004.918.006 1.674.006 2.136 0 .884.477 1.936 1.16 2.787Z"/></svg>
